X:0430
T:John come along
C:West India.
M:2/4
L:1/8
Q:1/4=104
P:ABA
N:Aird uses a da capo
I: :: || DC
N:the ` signs before the slur in line 3 cause mis-slurring
Z:Jack Campin * www.campin.me.uk * 2009
K:D
P:A
dd (c/d/e/).c/|d/c/d/e/ d2 |
ff  e/f/g/e/  |f/e/f/g/ f2 |
af Tf``(e/f/) |g```e   Te2 |
af Tf```e/f/  |g```e   Te2 |
Ad``c```e     |d/c/d/e/ d2::
P:B
d>f aa|a3a|bagf|g2g2 |
e>f gg|g3b|agfe|f2f2|]

